content/blogs/regnskap/landbrukskontoplan/landbrukskontoplan-saertrekk.svg

<svg xmlns="http://www.w3.org/2000/svg" width="800" height="500"><defs><linearGradient id="a" x1="0%" x2="100%" y1="0%" y2="100%"><stop offset="0%" style="stop-color:#f3e5f5;stop-opacity:1"/><stop offset="100%" style="stop-color:#e1bee7;stop-opacity:1"/></linearGradient><linearGradient id="b" x1="0%" x2="100%" y1="0%" y2="100%"><stop offset="0%" style="stop-color:#fff;stop-opacity:1"/><stop offset="100%" style="stop-color:#f5f5f5;stop-opacity:1"/></linearGradient></defs><path fill="url(#a)" d="M0 0h800v500H0z"/><text x="400" y="40" fill="#4a148c" font-family="Arial, sans-serif" font-size="24" font-weight="bold" text-anchor="middle">
    Særtrekk ved Landbruksregnskap
  </text><g transform="translate(50 80)"><rect width="320" height="160" fill="url(#b)" stroke="#9c27b0" stroke-width="2" rx="10"/><g transform="translate(20 20)"><circle cx="25" cy="50" r="20" fill="#4caf50" opacity=".2"/><path stroke="#4caf50" stroke-width="4" d="M25 70V30"/><path fill="none" stroke="#4caf50" stroke-width="3" d="M15 40q10-15 20 0"/><path fill="none" stroke="#4caf50" stroke-width="3" d="M10 50q15-15 30 0"/><circle cx="25" cy="30" r="3" fill="#ff9800"/></g><text x="80" y="35" fill="#4a148c" font-family="Arial, sans-serif" font-size="18" font-weight="bold">
      Biologisk Produksjon
    </text><text x="80" y="55" fill="#333" font-family="Arial, sans-serif" font-size="14">
      • Levende dyr og planter
    </text><text x="80" y="75" fill="#333" font-family="Arial, sans-serif" font-size="14">
      • Endrer verdi over tid
    </text><text x="80" y="95" fill="#333" font-family="Arial, sans-serif" font-size="14">
      • Vekst og utvikling
    </text><text x="80" y="115" fill="#333" font-family="Arial, sans-serif" font-size="14">
      • Kompleks verdivurdering
    </text><text x="80" y="135" fill="#333" font-family="Arial, sans-serif" font-size="14">
      • Biologiske transformasjoner
    </text></g><g transform="translate(430 80)"><rect width="320" height="160" fill="url(#b)" stroke="#ff9800" stroke-width="2" rx="10"/><g transform="translate(20 20)"><circle cx="25" cy="35" r="15" fill="#ffeb3b"/><path fill="#2196f3" d="M10 55q15-10 30 0-5 10-10 10-5 5-10 0-5 0-10-10"/><path stroke="#2196f3" stroke-width="2" d="m15 65-3 10M25 65l-3 10M35 65l-3 10"/></g><text x="80" y="35" fill="#e65100" font-family="Arial, sans-serif" font-size="18" font-weight="bold">
      Værforhold
    </text><text x="80" y="55" fill="#333" font-family="Arial, sans-serif" font-size="14">
      • Påvirker inntekter betydelig
    </text><text x="80" y="75" fill="#333" font-family="Arial, sans-serif" font-size="14">
      • Uforutsigbare kostnader
    </text><text x="80" y="95" fill="#333" font-family="Arial, sans-serif" font-size="14">
      • Avlingsforsikring
    </text><text x="80" y="115" fill="#333" font-family="Arial, sans-serif" font-size="14">
      • Sesongvariasjoner
    </text><text x="80" y="135" fill="#333" font-family="Arial, sans-serif" font-size="14">
      • Klimarisiko
    </text></g><g transform="translate(50 260)"><rect width="320" height="160" fill="url(#b)" stroke="#2196f3" stroke-width="2" rx="10"/><g transform="translate(20 20)"><path stroke="#2196f3" stroke-width="3" d="M10 40h30"/><circle cx="15" cy="40" r="4" fill="#4caf50"/><circle cx="25" cy="40" r="4" fill="#ff9800"/><circle cx="35" cy="40" r="4" fill="#f44336"/><text x="15" y="55" fill="#666" font-family="Arial, sans-serif" font-size="8" text-anchor="middle">Vår</text><text x="25" y="55" fill="#666" font-family="Arial, sans-serif" font-size="8" text-anchor="middle">Sommer</text><text x="35" y="55" fill="#666" font-family="Arial, sans-serif" font-size="8" text-anchor="middle">Høst</text></g><text x="80" y="35" fill="#1565c0" font-family="Arial, sans-serif" font-size="18" font-weight="bold">
      Lange Produksjonssykluser
    </text><text x="80" y="55" fill="#333" font-family="Arial, sans-serif" font-size="14">
      • Fra såing til høsting
    </text><text x="80" y="75" fill="#333" font-family="Arial, sans-serif" font-size="14">
      • Måneder med kostnader
    </text><text x="80" y="95" fill="#333" font-family="Arial, sans-serif" font-size="14">
      • Periodisering utfordringer
    </text><text x="80" y="115" fill="#333" font-family="Arial, sans-serif" font-size="14">
      • Aktivering av kostnader
    </text><text x="80" y="135" fill="#333" font-family="Arial, sans-serif" font-size="14">
      • Timing av inntektsføring
    </text></g><g transform="translate(430 260)"><rect width="320" height="160" fill="url(#b)" stroke="#4caf50" stroke-width="2" rx="10"/><g transform="translate(20 20)"><rect width="30" height="20" x="10" y="30" fill="#4caf50" rx="3"/><text x="25" y="42" fill="#fff" font-family="Arial, sans-serif" font-size="10" font-weight="bold" text-anchor="middle">NOK</text><path fill="none" stroke="#4caf50" stroke-width="2" d="m15 25 5-5h10l5 5"/><circle cx="12" cy="55" r="2" fill="#4caf50"/><circle cx="18" cy="55" r="2" fill="#4caf50"/><circle cx="24" cy="55" r="2" fill="#4caf50"/><circle cx="30" cy="55" r="2" fill="#4caf50"/><circle cx="36" cy="55" r="2" fill="#4caf50"/></g><text x="80" y="35" fill="#2e7d32" font-family="Arial, sans-serif" font-size="18" font-weight="bold">
      Komplekse Støtteordninger
    </text><text x="80" y="55" fill="#333" font-family="Arial, sans-serif" font-size="14">
      • Mange ulike tilskudd
    </text><text x="80" y="75" fill="#333" font-family="Arial, sans-serif" font-size="14">
      • Forskjellige vilkår
    </text><text x="80" y="95" fill="#333" font-family="Arial, sans-serif" font-size="14">
      • Rapporteringskrav
    </text><text x="80" y="115" fill="#333" font-family="Arial, sans-serif" font-size="14">
      • Refusjonsordninger
    </text><text x="80" y="135" fill="#333" font-family="Arial, sans-serif" font-size="14">
      • EU og nasjonale ordninger
    </text></g><text x="400" y="470" fill="#666" font-family="Arial, sans-serif" font-size="14" font-style="italic" text-anchor="middle">
    Disse særtrekkene krever spesialiserte regnskapsløsninger og fagkompetanse
  </text></svg>

<svg width="800" height="500" xmlns="http://www.w3.org/2000/svg">
  <defs>
    <linearGradient id="bgGradient" x1="0%" y1="0%" x2="100%" y2="100%">
      <stop offset="0%" style="stop-color:#f3e5f5;stop-opacity:1" />
      <stop offset="100%" style="stop-color:#e1bee7;stop-opacity:1" />
    </linearGradient>
    <linearGradient id="cardGradient" x1="0%" y1="0%" x2="100%" y2="100%">
      <stop offset="0%" style="stop-color:#ffffff;stop-opacity:1" />
      <stop offset="100%" style="stop-color:#f5f5f5;stop-opacity:1" />
    </linearGradient>
  </defs>
  

  <rect width="800" height="500" fill="url(#bgGradient)"/>
  

  <text x="400" y="40" text-anchor="middle" font-family="Arial, sans-serif" font-size="24" font-weight="bold" fill="#4a148c">
    Særtrekk ved Landbruksregnskap
  </text>
  

  <g transform="translate(50, 80)">
    <rect x="0" y="0" width="320" height="160" fill="url(#cardGradient)" stroke="#9c27b0" stroke-width="2" rx="10"/>
    

    <g transform="translate(20, 20)">
      <circle cx="25" cy="50" r="20" fill="#4caf50" opacity="0.2"/>
      <line x1="25" y1="70" x2="25" y2="30" stroke="#4caf50" stroke-width="4"/>
      <path d="M15,40 Q25,25 35,40" fill="none" stroke="#4caf50" stroke-width="3"/>
      <path d="M10,50 Q25,35 40,50" fill="none" stroke="#4caf50" stroke-width="3"/>
      <circle cx="25" cy="30" r="3" fill="#ff9800"/>
    </g>
    
    <text x="80" y="35" font-family="Arial, sans-serif" font-size="18" font-weight="bold" fill="#4a148c">
      Biologisk Produksjon
    </text>
    
    <text x="80" y="55" font-family="Arial, sans-serif" font-size="14" fill="#333">
      • Levende dyr og planter
    </text>
    <text x="80" y="75" font-family="Arial, sans-serif" font-size="14" fill="#333">
      • Endrer verdi over tid
    </text>
    <text x="80" y="95" font-family="Arial, sans-serif" font-size="14" fill="#333">
      • Vekst og utvikling
    </text>
    <text x="80" y="115" font-family="Arial, sans-serif" font-size="14" fill="#333">
      • Kompleks verdivurdering
    </text>
    <text x="80" y="135" font-family="Arial, sans-serif" font-size="14" fill="#333">
      • Biologiske transformasjoner
    </text>
  </g>
  

  <g transform="translate(430, 80)">
    <rect x="0" y="0" width="320" height="160" fill="url(#cardGradient)" stroke="#ff9800" stroke-width="2" rx="10"/>
    

    <g transform="translate(20, 20)">
      <circle cx="25" cy="35" r="15" fill="#ffeb3b"/>
      <path d="M10,55 Q25,45 40,55 Q35,65 30,65 Q25,70 20,65 Q15,65 10,55" fill="#2196f3"/>
      <line x1="15" y1="65" x2="12" y2="75" stroke="#2196f3" stroke-width="2"/>
      <line x1="25" y1="65" x2="22" y2="75" stroke="#2196f3" stroke-width="2"/>
      <line x1="35" y1="65" x2="32" y2="75" stroke="#2196f3" stroke-width="2"/>
    </g>
    
    <text x="80" y="35" font-family="Arial, sans-serif" font-size="18" font-weight="bold" fill="#e65100">
      Værforhold
    </text>
    
    <text x="80" y="55" font-family="Arial, sans-serif" font-size="14" fill="#333">
      • Påvirker inntekter betydelig
    </text>
    <text x="80" y="75" font-family="Arial, sans-serif" font-size="14" fill="#333">
      • Uforutsigbare kostnader
    </text>
    <text x="80" y="95" font-family="Arial, sans-serif" font-size="14" fill="#333">
      • Avlingsforsikring
    </text>
    <text x="80" y="115" font-family="Arial, sans-serif" font-size="14" fill="#333">
      • Sesongvariasjoner
    </text>
    <text x="80" y="135" font-family="Arial, sans-serif" font-size="14" fill="#333">
      • Klimarisiko
    </text>
  </g>
  

  <g transform="translate(50, 260)">
    <rect x="0" y="0" width="320" height="160" fill="url(#cardGradient)" stroke="#2196f3" stroke-width="2" rx="10"/>
    

    <g transform="translate(20, 20)">
      <line x1="10" y1="40" x2="40" y2="40" stroke="#2196f3" stroke-width="3"/>
      <circle cx="15" cy="40" r="4" fill="#4caf50"/>
      <circle cx="25" cy="40" r="4" fill="#ff9800"/>
      <circle cx="35" cy="40" r="4" fill="#f44336"/>
      <text x="15" y="55" text-anchor="middle" font-family="Arial, sans-serif" font-size="8" fill="#666">Vår</text>
      <text x="25" y="55" text-anchor="middle" font-family="Arial, sans-serif" font-size="8" fill="#666">Sommer</text>
      <text x="35" y="55" text-anchor="middle" font-family="Arial, sans-serif" font-size="8" fill="#666">Høst</text>
    </g>
    
    <text x="80" y="35" font-family="Arial, sans-serif" font-size="18" font-weight="bold" fill="#1565c0">
      Lange Produksjonssykluser
    </text>
    
    <text x="80" y="55" font-family="Arial, sans-serif" font-size="14" fill="#333">
      • Fra såing til høsting
    </text>
    <text x="80" y="75" font-family="Arial, sans-serif" font-size="14" fill="#333">
      • Måneder med kostnader
    </text>
    <text x="80" y="95" font-family="Arial, sans-serif" font-size="14" fill="#333">
      • Periodisering utfordringer
    </text>
    <text x="80" y="115" font-family="Arial, sans-serif" font-size="14" fill="#333">
      • Aktivering av kostnader
    </text>
    <text x="80" y="135" font-family="Arial, sans-serif" font-size="14" fill="#333">
      • Timing av inntektsføring
    </text>
  </g>
  

  <g transform="translate(430, 260)">
    <rect x="0" y="0" width="320" height="160" fill="url(#cardGradient)" stroke="#4caf50" stroke-width="2" rx="10"/>
    

    <g transform="translate(20, 20)">
      <rect x="10" y="30" width="30" height="20" fill="#4caf50" rx="3"/>
      <text x="25" y="42" text-anchor="middle" font-family="Arial, sans-serif" font-size="10" font-weight="bold" fill="white">NOK</text>
      <path d="M15,25 L20,20 L30,20 L35,25" fill="none" stroke="#4caf50" stroke-width="2"/>
      <circle cx="12" cy="55" r="2" fill="#4caf50"/>
      <circle cx="18" cy="55" r="2" fill="#4caf50"/>
      <circle cx="24" cy="55" r="2" fill="#4caf50"/>
      <circle cx="30" cy="55" r="2" fill="#4caf50"/>
      <circle cx="36" cy="55" r="2" fill="#4caf50"/>
    </g>
    
    <text x="80" y="35" font-family="Arial, sans-serif" font-size="18" font-weight="bold" fill="#2e7d32">
      Komplekse Støtteordninger
    </text>
    
    <text x="80" y="55" font-family="Arial, sans-serif" font-size="14" fill="#333">
      • Mange ulike tilskudd
    </text>
    <text x="80" y="75" font-family="Arial, sans-serif" font-size="14" fill="#333">
      • Forskjellige vilkår
    </text>
    <text x="80" y="95" font-family="Arial, sans-serif" font-size="14" fill="#333">
      • Rapporteringskrav
    </text>
    <text x="80" y="115" font-family="Arial, sans-serif" font-size="14" fill="#333">
      • Refusjonsordninger
    </text>
    <text x="80" y="135" font-family="Arial, sans-serif" font-size="14" fill="#333">
      • EU og nasjonale ordninger
    </text>
  </g>
  

  <text x="400" y="470" text-anchor="middle" font-family="Arial, sans-serif" font-size="14" font-style="italic" fill="#666">
    Disse særtrekkene krever spesialiserte regnskapsløsninger og fagkompetanse
  </text>
</svg>
